storage/app/icons/phosphoricons/regular/table.svg

<svg xmlns="http://www.w3.org/2000/svg" fill="currentColor" viewBox="0 0 256 256"><path d="M224 48H32a8 8 0 0 0-8 8v136a16 16 0 0 0 16 16h176a16 16 0 0 0 16-16V56a8 8 0 0 0-8-8M40 112h40v32H40Zm56 0h120v32H96Zm120-48v32H40V64ZM40 160h40v32H40Zm176 32H96v-32h120z"/></svg>

<svg xmlns="http://www.w3.org/2000/svg" viewBox="0 0 256 256" fill="currentColor"><path d="M224,48H32a8,8,0,0,0-8,8V192a16,16,0,0,0,16,16H216a16,16,0,0,0,16-16V56A8,8,0,0,0,224,48ZM40,112H80v32H40Zm56,0H216v32H96ZM216,64V96H40V64ZM40,160H80v32H40Zm176,32H96V160H216v32Z"/></svg>
